X:1115
T:Etrick Banks.
M:C
L:1/8
Q:1/4=120
I: :: ::
N:no variant printed, each half ends with A2
Z:Jack Campin * www.campin.me.uk * 2009
K:F
A>G|F3   E  D2Ac|dc Ac  d2f2|c2BA  f2 A2|BA`GF     G2
A>G|F3   E  D2fe|d3  c  A2e2|fgfe  de`fd|c2 A>B [1 A2:|[2 A3||
  c|f3   g  f2F2|A>Bc>d c2BA|f3 g  f2 ed|e>fga     g2
fg |a2 Tg>f f2F2|A2 c2  a3 g|f>gfe d>efd|c2 A>B [1 A3:|[2 A2:|
<end>
<start>
